X:1
T:Quy veult du feu
T:Quy veult du feu
T:Thomas Crecquillon
C:Thomas Crecquillon
%%score [ 1 2 3 4 ]
L:1/8
Q:1/4=86
M:2/2
K:C
V:1 treble nm="Superius" snm="S"
V:2 treble nm="Altus" snm="A"
V:3 treble-8 nm="Tenor" snm="T"
V:4 bass nm="Bass" snm="B"
V:1
 z4 c4- | c4 B4 | A4 G4 | z2 G2 GA Bc | d2 B2 c2 c2 | d4 e4- | e2 e2 f2 f2 | ed cB AG c2- | %8
w: Quy|_ veult|du feu|se vien- * * *|* gne'à la four-|nai- se,|_ vien- gne'à mon|cueur, _ _ _ _ _ _|
w: L'on|_ y|ver- ra|le tour- * * *|ment et mal- ay-|se qui|_ le de- tient|_ _ _ _ _ _ _|
 c2 B2 c4 | z4 z2 e2 | e2 d2 c2 B2 | c2 A4 G2 | A3 B c2 d2- | d2 c4 B2 | !fermata!c8 :| z8 | %16
w: _ _ _|qui|ya se tour- n'en|cen- * *|||dre,||
w: |pour|bon ser- vi- ce|ren- * *|||dre,||
 z2 c2 B2 A2 | G2 F2 G2 D2 | E2 F2 G2 FE | F4 E2 G2 | c2 c2 AG AB | c4 B4 | A8- | A4 z2 A2 | %24
w: et tout- tef-|fois mon mal ne|veult en- ten- * *|* dre ma|plus ay- mé- * * *||e|_ et|
w: ||||||||
 A2 A2 d3 c | B2 A4 G2- |"^#" G2 F2 G4- | G4 c4 | c2 c2 B2 B2- |: B2 c2 c4 | A8 | z4 z2 A2 | %32
w: cru- el- l'en- ne-|my- * *|* * e,|_ viens|donc, O mort, viens|_ donc, O|mort,|rom-|
w: ||||||||
 B2 c2 d2 e2 | d2 c4 B2 | c8- | c4 c4 |1 c2 c2 B2 B2 :|2 c8- || c8 |] %39
w: pre tant tris- te|vi- * *|e,|_ viens|donc, O mort, viens|(e).|_|
w: |||||||
V:2
 F8 | G4 G4 | C4 z2 C2 | CDEF G4- | G2 G2 A2 G2 | F4 E4 | G4 A2 A2 | G2 E2 F4 | G4 E2 G2 | %9
w: Quy|veult du|feu se|vien- * * * *|* gne'à la four-|nai- se,|vien- gne'à mon|cueur, _ _|_ _ qui|
w: L'on|y ver-|ra le|tour- * * * ment|_ et mal- ay-|se qui|le de- tient,|qui le de-|* tient pour|
 G2 G2 F2 G2 | EC D2 E4 | z2 E2 E2 D2 | E6 G2 | A2 F2 G4 | !fermata!E8 :| G4 F2 E2 | D2 C2 D2 F2 | %17
w: ya se tour- n'en|cen- * * dre,|qui ya se|tour- n'en|cen- * *|dre,|et tout- tef-|fois mon mal ne|
w: bon ser- vi- ce|ren- * * dre,|pour bon ser-|vi- ce|ren- * *|dre,|||
 D3 C B,3 A, | G,2 D4 C2- | C2 B,2 C2 E2 | E2 E2 FEFG | A4 G4 | C2 D4 C2 | F8- | F4 z2 D2 | %25
w: veult en ten- *||* * dre ma|plys ay- mé- * * *|||e|_ et|
w: ||||||||
 D2 D2 E2 E2 | D4 G,2 G2 | E3 F G2 A2 | A2 A2 G4 |: z2 G2 G2 G2 | F2 D2 E2 F2 | G2 A2 G2 F2 | %32
w: cru- el- l'en- ne|my- * *|* * e, viens|donc, O mort,|viens donc, O|mort, rom- pre tant|tris- te vi- *|
w: |||||||
 G6 E2 | F2 G2 A2 G2 | E2 F2 A4 | G2 G4 A2 |1 A4 G4 :|2 G8- || G8 |] %39
w: e, rom-|pre tant tris- te|vi- * *|e, viens donc,|O mort,|e.|_|
w: |||||||
V:3
 z4 c4- | c4 d4 | f4 e3 d | c2 c2 B2 GA | Bc d4 c2- | c2 B2 c4- | c8- | c4 z2 c2 | d2 d2 c2 e2 | %9
w: Quy|_ veult|du feu _|_ se vien- gne'à _|la _ four- nai-|* * se,|_|* vien-|gne'à mon cueur qui|
w: L'on|_ y|ver- ra _|_ le tour- ment _|_ _ et mal-|* ay- se|_|* qui|le de- tient pour|
 e2 d2 c2 B2 | c2 A4 G2 | A3 B c2 d2- | d2 c4 B2 | c4 d4 | !fermata!c8 :| z8 | z4 z2 c2 | %17
w: ya se tour- n'en|cen- * *|dre, _ _ se|_ tour- n'en|cen- *|dre,||et|
w: bon ser- vi- ce|ren- * *|dre, _ _ ser-|* vi- ce|ren- *|dre,|||
 B2 A2 G3 A | B2 A2 G2 A2 | F4 G4 | z4 z2 c2 | f2 f2 dc de | f4 e4 | d2 A2 A2 A2 | d3 c B2 A2 | %25
w: tout- tef- fois ne|veult en- ten- *|* dre|ma|plus ay- mé- * * *||e et cru- el-|l'en- * * ne|
w: ||||||||
 G2 A2 B2 c2 | A4 c4 | z2 e4 f2 | f4 d2 d2- |: d2 e2 e4 | d3 c/B/ A4 | z2 A2 B2 c2 | d2 e2 d2 g2 | %33
w: my- * * *|* e,|viens donc,|O mort, viens|_ donc, O|mort, _ _ _|rom- pre tant|tris- te vi- *|
w: ||||||||
 f2 e2 d4 | c4 f4 | e2 e4 f2 |1 f4 d2 d2- :|2 f2 ed e4- || e8 |] %39
w: ||e, viens donc,|O mort, viens|(i)- * * e.|_|
w: ||||||
V:4
 F,8 | C,4 G,4 | F,4 C,4 | C,2 C,D, E,F, G,2- | G,2 G,2 F,2 E,2 | D,4 C,4- | C,2 C,2 F,2 F,2 | %7
w: Quy|veult du|feu se|vien- gne'à _ _ _ la|_ four- nai- *|* se,|_ vien- gne'à mon|
w: L'on|y ver-|ra le|tour- ment _ _ _ et|_ mal ay- *|* se|_ qui le de-|
 C,2 C,2 F,2 A,2 | G,4 z2 C2 | C2 B,2 A,2 G,2 | A,2 F,2 E,4 | z2 C2 C2 B,2 | A,6 G,2 | %13
w: cueur, vien- gne'à mon|cueur qui|ya se tour- n'en|cen- * dre,|qui ya se|tour- n'en|
w: tient, qui le de-|tient pour|bon ser- vi- ce|ren- * dre,|pour bon ser-|vi- ce|
 F,2 A,2 G,4 | !fermata!C,8 :| z4 z2 C2 | B,2 A,2 G,2 F,2 | G,2 D,2 E,2 G,2- | G,2 F,2 E,2 D,C, | %19
w: cen- * *|dre,|et|tout- tef- fois mon|mal ne veult en-|* ten- * * *|
w: ren- * *|dre,|||||
 D,4 C,4- | C,4 F,4 | F,2 F,2 G,4 | F,2 D,2 A,4 | D,8 | z2 D,2 D,2 D,2 | G,2 F,2 E,2 C,2 | %26
w: * dre|_ ma|plus ay- mé-||e|et cru- el-|l'en- ne my- *|
w: |||||||
 D,4 C,4 | z2 C4 F,2 | F,4 G,2 G,2- |: G,2 C,2 C,4 | D,4 z2 D,2 | E,2 F,2 G,2 A,2 | %32
w: * e,|viens donc,|O mort, viens|_ donc, O|mort, rom-|pre tant tris ste|
w: ||||||
 G,2 C,2 G,2 C,2 | D,2 E,2 F,2 G,2 | A,2 F,3 G,A,B, | C2 C4 F,2 |1 F,4 G,2 G,2 :|2 C6 C,2 || C,8 |] %39
w: vi- * e, rom-|pre tant tris- te|vi- * * * *|e, viens donc,|O mort, viens|(i)- *|e.|
w: |||||||

